X:1
T:Title
%%score ( 1 2 ) { 3 | ( 4 5 ) }
L:1/8
Q:1/4=92
M:6/8
K:C
V:1 treble nm="Grand Piano, Soprano"
V:2 treble 
V:3 bass nm="Choir Pad, The Great Judgment Day"
V:4 bass 
V:5 bass 
V:1
 [CE][CE][CE] [DE][DE][DE] | [CE] [CE]2- [CE]3/2 z/ [CE] | [CA][CA][CA] [Ec][Ec][Ec] | %3
w: By~Haldor~Lillenas * * * * *|||
 [E^GB]3- [EGB]3/2 z/ [EGB] | [FA][FA][FA] cBA | [EG] [Ec]2- [Ec]3/2 z/ [Ec] | .[DB]2 B ADA | %7
w: ||||
 G-[CG-][^CG-] [B,-D-G]>[B,D]G | [B,F][B,F][B,F] [B,F][B,E][B,D] | [CE] [EG]2- [EG]3/2 z/ G | %10
w: |||
 [FA][FA][FA] [Ec][EB][EA] | [E^GB]3- [EGB]3/2 z/ [F=G] | [Ec][Ec][Ec] [Ge][Gd][Gc] | %13
w: |||
 [Fd]3 [FA]2 A | [EG][Ec][Ec] [FB][FA][FB] | [Ec]6 | [EG][EG][EG] [EG]3 | [FA][FA][FA] [FA]3 | %18
w: |||||
 [FB][FB][FB] [FB][FA][FB] | [Ec][EG][EG] [EG]3 | [Ge][Ge][Ge] [Gc]2 [Gc] | %21
w: |||
 [Fd]2 [FA] [_Ec][EB][EA] | [EG]2 [EG] [DG]2 [FG] | [EG]6- | [EG]3 z3 |] %25
w: ||||
V:2
 x6 | x6 | x6 | x6 | z3 F3 | x6 | z D2 C3 | .B,3 z3 | x6 | x6 | x6 | x6 | x6 | x6 | x6 | x6 | x6 | %17
 x6 | x6 | x6 | x6 | x6 | x6 | x6 | x6 |] %25
V:3
 G,3 ^G,3 | A,C,E, CB,A, | E,3 A,3 | E,,^G,B,[K:treble] DCB, | C3 A,[K:bass]B,C | C,E,G, A,G,E, | %6
 G,3 ^F,3 | G,_E,=E, .F,3 | G,3 G,3 | C,E,G, A,G,E, | C3 A,B,C | E,,^G,B,[K:treble] DCB, | %12
 C3 C[K:bass]B,C | F,,A,C[K:treble] DCA, | C3 G,3 | C,A,G, .C3 | C[K:treble]CC C3 | CCC C3 | %18
 G,G,G, G,G,G, | G,[K:treble]CC C3 | CCC C2 C | A,2 C A,B,C | C2 C B,2 D | C6- | C3 z3 |] %25
V:4
 C,3 B,,3 | .A,,3 z3 | C,3 C,3 | z6 | F,3 F,3 | z6 | D,3 D,3 | .D,3 z3 | D,3 G,,3 | z6 | F,3 z3 | %11
 z6 | C,3 C,D,E, | z6 | G,3 G,,3 | z3 .C,3 | C,C,C, C,3 | F,F,F, F,3 | z3 G,,G,,G,, | C,C,C, C,3 | %20
 C,C,C, E,2 E, | F,2 F, ^F,F,F, | G,2 G, G,,2 G,, | C,6- | C,3 z3 |] %25
V:5
 x6 | x6 | x6 | x6 | x6 | x6 | x6 | G,,6 | x6 | x6 | x6 | x6 | x6 | x6 | x6 | x6 | x6 | x6 | x6 | %19
 x6 | x6 | x6 | x6 | x6 | x6 |] %25

